svg/money-16.svg

<svg width="16" height="16" viewBox="0 0 16 16" fill="none" xmlns="http://www.w3.org/2000/svg">
<path fill-rule="evenodd" clip-rule="evenodd" d="M0 3.5H14V14.5H0V3.5ZM1 4.5V13.5H13V4.5H1Z" fill="#1D1D1D"/>
<path d="M6.89998 12.022C6.56398 12.022 6.23698 11.959 5.91898 11.833C5.60098 11.707 5.32798 11.524 5.09998 11.284L5.57698 10.645C5.78098 10.825 5.99098 10.96 6.20698 11.05C6.42898 11.134 6.65998 11.176 6.89998 11.176C7.19398 11.176 7.41298 11.104 7.55698 10.96C7.70098 10.816 7.77298 10.624 7.77298 10.384C7.77298 10.198 7.71298 10.042 7.59298 9.91601C7.47898 9.79001 7.32598 9.67301 7.13398 9.56501C6.94798 9.45701 6.74998 9.34901 6.53998 9.24101C6.33598 9.12701 6.14098 9.00101 5.95498 8.86301C5.76898 8.72501 5.61598 8.56301 5.49598 8.37701C5.38198 8.19101 5.32498 7.96301 5.32498 7.69301C5.32498 7.36901 5.39698 7.08701 5.54098 6.84701C5.68498 6.60101 5.88598 6.41201 6.14398 6.28001C6.40798 6.14801 6.71398 6.08201 7.06198 6.08201C7.42798 6.08201 7.73998 6.15101 7.99798 6.28901C8.26198 6.42101 8.48997 6.59801 8.68198 6.82001L8.15098 7.38701C8.00698 7.23701 7.84798 7.12301 7.67398 7.04501C7.50598 6.96701 7.31098 6.92801 7.08898 6.92801C6.85498 6.92801 6.66898 6.99101 6.53098 7.11701C6.39298 7.24301 6.32398 7.42001 6.32398 7.64801C6.32398 7.81001 6.38098 7.95101 6.49498 8.07101C6.61498 8.19101 6.76798 8.30201 6.95398 8.40401C7.13998 8.50001 7.33798 8.60201 7.54798 8.71001C7.75798 8.81801 7.95598 8.94101 8.14198 9.07901C8.32798 9.21701 8.47798 9.38501 8.59198 9.58301C8.71198 9.77501 8.77198 10.012 8.77198 10.294C8.77198 10.636 8.69698 10.936 8.54698 11.194C8.40298 11.452 8.18998 11.656 7.90798 11.806C7.63198 11.95 7.29598 12.022 6.89998 12.022ZM6.65698 12.904V11.617H7.37698V12.904H6.65698ZM6.65698 6.42401V5.20001H7.37698V6.42401H6.65698Z" fill="#1D1D1D"/>
<path fill-rule="evenodd" clip-rule="evenodd" d="M2 1.5H16V13H15V2.5H2V1.5Z" fill="#1D1D1D"/>
</svg>

<svg xmlns="http://www.w3.org/2000/svg" width="16" height="16">
  <path fill-rule="evenodd" d="M0 3.5h14v11H0v-11Zm1 1v9h12v-9H1Z" clip-rule="evenodd"/>
  <path d="M6.9 12.022a2.64 2.64 0 0 1-.981-.189 2.265 2.265 0 0 1-.819-.549l.477-.639c.204.18.414.315.63.405.222.084.453.126.693.126.294 0 .513-.072.657-.216.144-.144.216-.336.216-.576a.652.652 0 0 0-.18-.468 1.808 1.808 0 0 0-.459-.351 13.274 13.274 0 0 0-.594-.324 5.409 5.409 0 0 1-.585-.378 1.855 1.855 0 0 1-.459-.486 1.286 1.286 0 0 1-.171-.684c0-.324.072-.606.216-.846.144-.246.345-.435.603-.567.264-.132.57-.198.918-.198.366 0 .678.069.936.207.264.132.492.309.684.531l-.531.567a1.525 1.525 0 0 0-.477-.342 1.376 1.376 0 0 0-.585-.117c-.234 0-.42.063-.558.189-.138.126-.207.303-.207.531 0 .162.057.303.171.423.12.12.273.231.459.333l.594.306c.21.108.408.231.594.369.186.138.336.306.45.504.12.192.18.429.18.711 0 .342-.075.642-.225.9a1.536 1.536 0 0 1-.639.612c-.276.144-.612.216-1.008.216Zm-.243.882v-1.287h.72v1.287h-.72Zm0-6.48V5.2h.72v1.224h-.72Z"/>
  <path fill-rule="evenodd" d="M2 1.5h14V13h-1V2.5H2v-1Z" clip-rule="evenodd"/>
</svg>
